!!!COM: Joplin, Scott
!!!CDT: 1868/11/24-1917/04/01
!!!OTL: Elite Syncopations Rag
!!!ODT: 1902
!!!AGN: Rag
**kern	**kern
*staff2	*staff1
*>[I,A,A1,A,A2,B,B1,B,B2,C,D,D1,D,D2,E,E1,E,E2]	*>[I,A,A1,A,A2,B,B1,B,B2,C,D,D1,D,D2,E,E1,E,E2]
*>norep[I,A,A2,B,B2,C,D,D2,E,E2]	*>norep[I,A,A2,B,B2,C,D,D2,E,E2]
*>I	*>I
*clefF4	*clefG2
*k[b-]	*k[b-]
*M2/4	*M2/4
*MM100	*MM100
=1-	=1-
!!!OMD: INTRODUCTION.
16cc>LL	16cccLL
16a>	16aa
16g>	16gg
[16f>JJ	[16ffJJ
16f>LL]	16ffLL]
16a>	16aa
16g>	16gg
16f>JJ	16ffJJ
=2	=2
16g>LL	16ggLL
16f>	16ff
16d>	16dd
[16c>JJ	[16ccJJ
16c>LL]	16ccLL]
16F	16f
16G	16g
16AJJ	16aJJ
=3	=3
16CLK	16cLK
8G	8g
16FJk	16fJk
8EL	8eL
8GJ	8gJ
=4	=4
8c	8cc g e
8CL CC	16r
.	16c
8D DD	16r
.	16dLL
8EJ EE	16rb
.	16eJJ
!!LO:LB:g=z
=5!|:	=5!|:
*>A	*>A
4.F FF	16r
.	16fLL<
.	16dd
.	[16ccJJ [a [f
.	16cc]LL< a] f]
.	16ddJ
8F# FF#	8ccJ a d#
=6	=6
4.G\ GG\	16r
.	16eLL<
.	16dd
.	[16ccJJ [<b- [e
.	16cc]LL< b-] e]
.	16ddJ
8G#\ GG#\	8ccJ b- e
=7	=7
8AL AA	16r
.	16ccLL a f
8e-J E-	16r
.	16ccJJ a
8dL D	16r
.	16cc-LL a-
8d-J D-	16r
.	16b-JJ g
=8	=8
*	*^
8cL C	16aLL	8fL
.	16cc	.
8BnJ BBn	16dd	8a-J
.	16ffJJ	.
8B-L< BB-	4ryy	8eeL cc g
8CJ CC	.	8ggJ ee b-
*	*v	*v
!!LO:LB:g=z
=9	=9
8FFL	16aaLL ff a
.	16gg#
8fJ c A	16aa
.	[16cccJJ
8AAL	16cccLL]
.	16aa
8fJ c A	16ggn
.	16ffJJ
=10	=10
8BB-L	16ggLL
.	16ff
8fJ d B-	16dd
.	[16ffJJ
8AAL	16ffLL]
.	16dd
8fJ c A	16cc
.	16aJJ
=11	=11
8BBnL	16gLL
.	16gg
8fJ Bn G	16ff
.	16eeJJ
8GGL	16ddLK
.	8a
8fJ B G	.
.	16bnJk
=12	=12
8e c	8cc
8r	8r
8cL< C	8ccc ee cc
8CJ CC	8r
!!LO:LB:g=z
=13	=13
4.F FF	16r
.	16fLL<
.	16dd
.	[16ccJJ [a [f
.	16cc]LL< a] f]
.	16ddJ
8F# FF#	8ccJ a d#
=14	=14
4.G\ GG\	16r
.	16eLL<
.	16dd
.	[16ccJJ [<b- [e
.	16cc]LL< b-] e]
.	16ddJ
8G#\ GG#\	8ccJ b- e
=15	=15
8AL AA	16r
.	16ccLL a f
8e-J E-	16r
.	16ccJJ a
8dL D	16r
.	16cc-LL a-
8d-J D-	16r
.	16b-JJ g
=16	=16
*	*^
8cL C	16aLL	8fL
.	16cc	.
8BnJ BBn	16dd	8a-J
.	16ffJJ	.
8B-L< BB-	4ryy	8eeL cc g
8CJ CC	.	8ggJ ee b-
*	*v	*v
!!LO:LB:g=z
=17	=17
8FFL	16aaLL ff a
.	16gg#
8fJ c A	16aa
.	[16cccJJ
8AAL	16cccLL]
.	16aa
8fJ c A	16ggn
.	16ffJJ
=18	=18
8BB-L	16ggLL
.	16ff
8fJ d B-	16dd
.	[16ccJJ
8AAL	16ccLL]
.	16dd
8fJ c A	16a
.	16gJJ
=19	=19
8DL DD	16fLL Bn
.	16gJ
8DJ DD	8aJ f B
8CL CC	16gLK e B-
.	8g e B-
8EJ EE	.
.	16cJk B-
=20	=20
*>A1	*>A1
8F FF	8f A
8CL CC	16r
.	16c
8D DD	16r
.	16dLL
8EJ EE	16r
.	16eJJ
=21:|!	=21:|!
*>A2	*>A2
8F FF	8f A
8r	16ccLL
.	16ccJJ
4r	8ccL
.	8ccJ
!!LO:LB:g=z
=22	=22
*>B	*>B
8GL	16eeLL
.	16dd
8eJ c B-	16cc
.	16b-JJ
8CL	16aLK
.	8b-
8eJ c B-	.
.	16gJk
=23	=23
8FL	16fLL
.	16g
8cJ A	16a
.	[16cJJ
8CL	16cLL]
.	16a
8cJ A	16g
.	16fJJ
=24	=24
8GL	16eLL
.	16f
8cJ B-	16g
.	[16cJJ
8CL	16cLL]
.	16b-
8cJ B-	16a
.	16gJJ
=25	=25
8FL	16fLL<
.	16a
8cJ A	16dd
.	[16ccJJ
8AL	8ccL]
8fJ c	8ccJ
=26	=26
8GL	16eeLL
.	16dd
8eJ c B-	16cc
.	16b-JJ
8EL	16aLK
.	8b-
8c#J B- G	.
.	16eJk
!!LO:LB:g=z
=27	=27
8DL	16fLL
.	16e
8dJ A F	16f
.	[16aJJ
8DL	16aLL]
.	16a
8dJ A F	16g
.	16fJJ
=28	=28
8EL	16eLL
.	16cc
8cJ A	16bn
.	16aJJ
8EL	16g#LK
.	8b
8dJ G#	.
.	16eJk
=29	=29
8c A	8a
8r	8r
4c C	4cc b- e
=30	=30
8GL	16eeLL
.	16dd
8eJ c B-	16cc
.	16b-JJ
8CL	16aLK
.	8b-
8eJ c	.
.	16gJk
=31	=31
8FL	16fLL
.	16g
8cJ A	16a
.	[16cJJ
8CL	16cLL]
.	16a
8cJ A	16g
.	16fJJ
!!LO:LB:g=z
=32	=32
8GL	16eLL
.	16f
8cJ B-	16g
.	[16cJJ
8CL	16cLL]
.	16b-
8cJ B-	16a
.	16gJJ
=33	=33
8FL	16fLL<
.	16a
8cJ A	16dd
.	[16ccJJ
8CL	8ccL]
8cJ A	8ccJ
=34	=34
8BB-L	16ddLK b-
.	8gg
8dJ B- G	.
.	[16ddJk [b-
8BB-L	16dd]LL b-]
.	16ggJ
8dJ B- G	8ddJ b-
=35	=35
8CL	16ccLK a
.	8ff
8cJ A	.
.	[16ccJk [a
8CL	16cc]LL a]
.	16ffJ
8cJ A	8ccJ a
=36	=36
8CL	16b-LL
.	16g
8eJ c B-	16dd
.	[16ccJJ
8CL	16ccLL<]
.	16b-J
8cJ B- G	8eJ
!!LO:LB:g=z
=37	=37
*>B1	*>B1
8c A F	8fL<
8r	16ccL
.	16ccJJ
4r	8ccL
.	8ccJ
!	!LO:TX:c:i:t=repeat 8va:rj
=38:|!	=38:|!
*>B2	*>B2
8c A F	8f
8CL CC	16r
.	16c
8D DD	16r
.	16dLL
8EJ EE	16r
.	16eJJ
=39	=39
*>C	*>C
4.F FF	16r
.	16fLL<
.	16dd
.	[16ccJJ [a [f
.	16cc]LL< a] f]
.	16ddJ
8F# FF#	8ccJ a d#
=40	=40
4.G\ GG\	16r
.	16eLL<
.	16dd
.	[16ccJJ [b- [e
.	16cc]LL< b-] e]
.	16ddJ
8G#\ GG#\	8ccJ b- e
=41	=41
8AL AA	16r
.	16ccLL a f
8e-J E-	16r
.	16ccJJ a
8dL D	16r
.	16cc-LL a-
8d-J D-	16r
.	16b-JJ g
!!LO:LB:g=z
=42	=42
*	*^
8cL C	16aLL	8fL
.	16cc	.
8BnJ BBn	16dd	8a-J
.	16ffJJ	.
8B-L< BB-	4ryy	8eeL cc g
8CJ CC	.	8ggJ ee b-
*	*v	*v
=43	=43
8FFL	16aaLL ff a
.	16gg#
8fJ c A	16aa
.	[16cccJJ
8AAL	16cccLL]
.	16aa
8fJ c A	16ggn
.	16ffJJ
=44	=44
8BB-L	16ggLL
.	16ff
8fJ d B-	16dd
.	[16ffJJ
8AAL	16ffLL]
.	16dd
8fJ c A	16cc
.	16aJJ
=45	=45
8BBnL	16gLL
.	16gg
8fJ Bn G	16ff
.	16eeJJ
8GGL	16ddLK
.	8a
8fJ B G	.
.	16bnJk
=46	=46
8e c	8cc
8r	8r
8cL< C	8ccc ee cc
8CJ CC	8r
!!LO:LB:g=z
=47	=47
4.F FF	16r
.	16fLL<
.	16dd
.	[16ccJJ [a [f
.	16cc]LL< a] f]
.	16ddJ
8F# FF#	8ccJ a d#
=48	=48
4.G\ GG\	16r
.	16eLL<
.	16dd
.	[16ccJJ [<b- [e
.	16cc]LL< b-] e]
.	16ddJ
8G#\ GG#\	8ccJ b- e
=49	=49
8AL AA	16r
.	16ccLL a f
8e-J E-	16r
.	16ccJJ a
8dL D	16r
.	16cc-LL a-
8d-J D-	16r
.	16b-JJ g
=50	=50
*	*^
8cL C	16aLL	8fL
.	16cc	.
8BnJ BBn	16dd	8a-J
.	16ffJJ	.
8B-L< BB-	4ryy	8eeL cc g
8CJ CC	.	8ggJ ee b-
*	*v	*v
!!LO:LB:g=z
=51	=51
8FFL	16aaLL ff a
.	16gg
8fJ c A	16aa
.	[16cccJJ
8AAL	16cccLL]
.	16aa
8fJ c A	16ggn
.	16ffJJ
=52	=52
8BB-L	16ggLL
.	16ff
8fJ d B-	16dd
.	[16ccJJ
8AAL	16ccLL]
.	16dd
8fJ c A	16a
.	16gJJ
=53	=53
8DL DD	16fLL Bn
.	16gJ
8DJ DD	8aJ f B
8CL CC	16gLK e B-
.	8g e B-
8EJ EE	.
.	16cJk B-
=54	=54
8F FF	8f A
8r	8r
4F FF	4ff ee- a
!!LO:LB:g=z
=55||	=55||
*>D	*>D
*k[b-e-]	*k[b-e-]
8BB-L	16ddLL b-
.	16gg
8dJ B- F	16ff
.	16ee-JJ
8DL	16ddLL
.	16cc
8dJ B- F	16b-
.	16ddJJ
=56	=56
8E-L	16ccLL
.	16b-
8e-J B- G	16g
.	[16fJJ
8DL	16fLK]
.	8bb-
8dJ B- F	.
.	16ggJk
=57	=57
8BB-L	16ffLL
.	16gg
8dJ B- F	16ff
.	16ddJJ
8CL	16b-LL
.	16cc
8enJ c B-	16dd
.	[16ccJJ [a
=58	=58
8e-XL A F	4.cc] a]
8FJ FF	.
8GL GG	.
8AJ AA	8f
!!LO:LB:g=z
=59	=59
8B-L BB-	16ddLL
.	16gg
8dJ B- F	16ff
.	16ee-JJ
8DL	16ddLL
.	16ee-
8dJ c F#	16dd
.	16ccJJ
=60	=60
8GL	16b-LL<
.	16a
8dJ B-	16g
.	[16b-JJ
8GL	16b-LL]
.	16dd
8dJ B-	16cc
.	16b-JJ
=61	=61
8AL	16aLL
.	16dd
8fJ d	16ff
.	16aaJJ
8AL	16ggLK
.	8ff
8gJ c#	.
.	16eenJk
=62	=62
8f d	8dd
8r	8r
4F FF	4ff ee-X a
!!LO:LB:g=z
=63	=63
8BB-L< BBB-	16ddLL b-
.	16gg
8dJ B- F	16ff
.	16ee-JJ
8DL	16ddLL
.	16cc
8dJ B- F	16b-
.	16ddJJ
=64	=64
8E-L	16ccLL
.	16b-
8e-J B- G	16g
.	[16fJJ
8DL	16fLK]
.	8bb-
8dJ B- F	.
.	16ggJk
=65	=65
8BB-L	16ffLL
.	16gg
8dJ B- F	16ff
.	16ddJJ
8CL	16b-LL
.	16cc
8enJ c B-	16dd
.	[16ccJJ [a
=66	=66
8e-XL A F	4.cc] a]
8FJ FF	.
8GL GG	.
8AJ AA	8f
!!LO:LB:g=z
=67	=67
8B-L BB-	16ddLL
.	16cc#
8dJ B- F	16dd
.	16ee-JJ
8DL	16ffLL
.	16een
8dJ B- F	16ff
.	16ff#JJ
=68	=68
8E-L	16ggLL
.	16ff#
8e-J B- G	16gg
.	[16bb-JJ
8EnL	16bb-LL]
.	16bb-
8c#J B- G	16aa
.	16ggJJ
=69	=69
8FL	16ffLL
.	16ddd
8dJ B-	16ccc
.	16ffJJ
8FFL	16ggLL
.	16ee-
8e-J A F	16cc
.	16aJJ
=70	=70
*>D1	*>D1
8d B-	8b-L
8r	16enL
.	16fJJ
4r	16gLL
.	16a
.	16b-
.	16ccJJ
=71:|!	=71:|!
*>D2	*>D2
*^	*
4.d	8B-L	4.b-
.	8BB-J BBB-	.
.	8CL> CC	.
8ryy	8DJ DD	16r
.	.	[16bb- [b-
*v	*v	*
!!LO:LB:g=z
=72!|:	=72!|:
*>E	*>E
8E-L EE-	16bb-]LL b-]
.	16ee-
8e-J B- G	16ccc cc
.	16ee-JJ
8e-L B- G	16ggLK
.	8bb- b-
8DJ DD	.
.	16ee-Jk
=73	=73
8E-L EE-	16cccLL cc
.	16ee-
8FJ FF	16gg
.	[16bb-JJ [b-
8GL GG	16bb-]LK b-]
.	8ccc cc
8AJ AA	.
.	16bb-Jk b-
=74	=74
8B-L BB-	16ffLL f
.	16b-
8dJ B- F	16gg g
.	16b-JJ
8dL B- F	16ddLK
.	8ff f
8c#J C#	.
.	16b-Jk
=75	=75
8dL D	16ggLL g
.	16b-
8dJ B- F	16dd
.	[16ffJJ f
8dL B- F	16ff]LK f
.	8gg g
8FJ FF	.
.	16b-Jk
!!LO:LB:g=z
=76	=76
8cL C	16ffLL f
.	16a
8e-J A F	16gg g
.	16aJJ
8e-L A F	16ccLK
.	8ff f
8FJ FF	.
.	16aJk
=77	=77
8cL C	16ggLL g
.	16a
8e-J A F	16cc
.	[16ffJJ [f
8cL C	16ff]LK f]
.	8gg g
8c#J C#	.
.	16aJk
=78	=78
8dL D	16ffLL f
.	16b-
8dJ B- F	16gg g
.	16b-JJ
8dL B- F	16ddLK
.	8ff f
8FJ FF	.
.	16b-Jk
=79	=79
8B-L BB-	16ggLL g
.	16b-
8dJ B- F	16dd
.	[16ffJJ [f
8dL B- F	16ff]LK f]
.	8ff f
8DJ DD	.
.	[16bb-Jk [b-
!!LO:LB:g=z
=80	=80
8E-L EE-	16bb-]LL b-]
.	16ee-
8e-J B- G	16ccc cc
.	16ee-JJ
8e-L B- G	16ggLK
.	8bb- b-
8DJ DD	.
.	16ee-Jk
=81	=81
8E-L EE-	16cccLL cc
.	16ee-
8FJ FF	16gg
.	[16bb-JJ [b-
8GL GG	16bb-]LK b-]
.	8ccc cc
8AJ AA	.
.	16bb-Jk b-
=82	=82
8B-L BB-	16ffLL f
.	16b-
8dJ B- F	16gg g
.	16b-JJ
8FFL	16ddLK
.	8ff f
8dJ B- F	.
.	16b-Jk
=83	=83
8BB-L	16ggLL g
.	16b-
8dJ B- F	16dd
.	[16ffJJ [f
8FFL	16ff]LK f]
.	8ff f
8dJ B- F	.
.	[16dd-Jk [en
!!LO:LB:g=z
=84	=84
8G-L GG-	16dd-]LL e]
.	16b-
8d-J D-	16dd- en
.	16b-JJ
8B-L BB-	16ccLK>
.	8dd- e
8G-J GG-	.
.	16b-Jk
=85	=85
8FL FF	16ddnLL f
.	16b-
8dnJ Dn	16cc
.	[16ddJJ [f
8B-L BB-	16dd]LK< f]
.	8dd f
8FJ FF	.
.	[16ffJk [f
=86	=86
8cL C	16ff]LL f]
.	16cc
8e-J A F	16gg g
.	16ccJJ
8FL FF	16ee-LK
.	8aa a
8e-J A F	.
.	[16bb-Jk [b-
=87	=87
*>E1	*>E1
*^	*
4d	8B-L	4bb-] b-]
.	8BB-J BBB-	.
8CL CC	4ryy	8.r
8DJ DD	.	.
.	.	[16bb- [b-
=88:|!	=88:|!	=88:|!
*v	*v	*
*>E2	*>E2
*^	*
4d	8B-L	4bb-] b-]
.	8FJ FF	.
8BB- BBB-	4ryy	8bb- dd b-
8r	.	8r
*v	*v	*
==	==
*-	*-
!!!RDF**kern: > = above
!!!RDF**kern: < = below
!!!URL-vhv: https://verovio.humdrum.org/?file=joplin/elite.krn
!!!URL-pdf-original: https://github.com/craigsapp/joplin/blob/master/reference-edition/elite.pdf
!!!ENC: Craig Stuart Sapp
!!!END: 2005/03/30
!!!EED: Craig Stuart Sapp
!!!EEV: 2021/06/27
!!!YEC: 2021 Craig Stuart Sapp
!!!URL: https://github.com/craigsapp/joplin
!!!YEM: Licence: (CC BY-NC-SA 4.0) https://creativecommons.org/licenses/by-nc-sa/4.0
!!!YER: 2021
